X: 31986
T: Pedwar Post O'r Gwely
R: jig
M: 6/8
K: Cmajor
|:d^cd fed|d^cd fed|d^cd d2g|e3c3:|
|:d2c BAG|d2c BAG|cBc c2g|e3 c3:|

